dist/assets/images/icons/search.svg

<svg width="16" height="16" viewBox="0 0 16 16" fill="none" xmlns="http://www.w3.org/2000/svg">
<path d="M7.66732 14.5002C3.90065 14.5002 0.833984 11.4335 0.833984 7.66683C0.833984 3.90016 3.90065 0.833496 7.66732 0.833496C11.434 0.833496 14.5006 3.90016 14.5006 7.66683C14.5006 11.4335 11.434 14.5002 7.66732 14.5002ZM7.66732 1.8335C4.44732 1.8335 1.83398 4.4535 1.83398 7.66683C1.83398 10.8802 4.44732 13.5002 7.66732 13.5002C10.8873 13.5002 13.5006 10.8802 13.5006 7.66683C13.5006 4.4535 10.8873 1.8335 7.66732 1.8335Z" fill="#101112"/>
<path d="M14.666 15.1665C14.5393 15.1665 14.4127 15.1198 14.3127 15.0198L11.666 12.3331C11.8593 12.1398 12.3727 11.6265 12.3727 11.6265L15.0193 14.3131C15.2127 14.5065 15.2127 14.8265 15.0193 15.0198C14.9193 15.1198 14.7927 15.1665 14.666 15.1665Z" fill="#101112"/>
</svg>

<svg width="16" height="16" fill="none" xmlns="http://www.w3.org/2000/svg"><path d="M7.667 14.5C3.901 14.5.834 11.434.834 7.667.834 3.9 3.901.833 7.667.833c3.767 0 6.834 3.067 6.834 6.834 0 3.767-3.067 6.833-6.834 6.833zm0-12.666a5.84 5.84 0 00-5.833 5.833A5.84 5.84 0 007.667 13.5a5.84 5.84 0 005.834-5.833 5.84 5.84 0 00-5.834-5.833z" fill="#101112"/><path d="M14.666 15.166a.494.494 0 01-.353-.146l-2.647-2.687.707-.707 2.646 2.687a.503.503 0 010 .707c-.1.1-.226.146-.353.146z" fill="#101112"/></svg>
